images/bluetooth.svg

<?xml version="1.0" encoding="utf-8"?>
<!-- Generated by IcoMoon.io -->
<!DOCTYPE svg PUBLIC "-//W3C//DTD SVG 1.1//EN" "http://www.w3.org/Graphics/SVG/1.1/DTD/svg11.dtd">
<svg version="1.1" xmlns="http://www.w3.org/2000/svg" xmlns:xlink="http://www.w3.org/1999/xlink" width="960" height="960" viewBox="0 0 960 960">
<g id="icomoon-ignore">
</g>
	<path d="M532.956 480.072l126.653-126.69c28.072-28.035 28.072-73.514 0-101.549l-215.707-215.708v354.857l-162.384-162.312c-1.283-1.319-2.748-2.272-4.141-3.444h-1.246v-1.026c-1.539-1.283-3.042-2.711-4.654-3.848-8.832 24.957-16.785 51.159-23.747 78.499l181.331 181.369-181.112 181.148c7 27.265 14.952 53.431 23.784 78.316 1.539-1.063 2.932-2.455 4.433-3.665v-1.209h1.465c1.319-1.1 2.711-2.052 3.957-3.262l162.384-162.384v354.857l215.707-215.707c28.072-28.072 28.072-73.514 0-101.549l-126.727-126.69zM518.48 214.782l70.4 70.363c0.184 0.184 0.402 0.293 0.622 0.513 9.088 9.088 9.308 23.565 0.843 33.019l0.111 0.072-71.976 71.939v-175.907zM590.455 673.645l-71.976 71.976v-175.981l70.4 70.363c0.184 0.22 0.402 0.33 0.622 0.513 9.088 9.088 9.308 23.601 0.843 33.055l0.111 0.072z"></path>
</svg>

<?xml version="1.0" encoding="UTF-8" standalone="no"?>
<!-- Created with Inkscape (http://www.inkscape.org/) -->

<svg
   xmlns:dc="http://purl.org/dc/elements/1.1/"
   xmlns:cc="http://creativecommons.org/ns#"
   xmlns:rdf="http://www.w3.org/1999/02/22-rdf-syntax-ns#"
   xmlns:svg="http://www.w3.org/2000/svg"
   xmlns="http://www.w3.org/2000/svg"
   xmlns:inkscape="http://www.inkscape.org/namespaces/inkscape"
   version="1.1"
   width="960"
   height="960"
   viewBox="0 0 960 960"
   id="svg2">
  <metadata
     id="metadata10">
    <rdf:RDF>
      <cc:Work
         rdf:about="">
        <dc:format>image/svg+xml</dc:format>
        <dc:type
           rdf:resource="http://purl.org/dc/dcmitype/StillImage" />
      </cc:Work>
    </rdf:RDF>
  </metadata>
  <defs
     id="defs8" />
  <path
     d="m 532.956,480.072 126.653,-126.69 c 28.07,-28.035 28.07,-73.514 0,-101.55 L 443.9,36.126 V 390.983 L 281.518,228.67 c -1.283,-1.32 -2.748,-2.272 -4.14,-3.444 h -1.247 V 224.2 c -1.53,-1.283 -3.04,-2.71 -4.65,-3.848 -8.83,24.957 -16.78,51.16 -23.74,78.5 L 429.06,480.22 247.95,661.368 c 7,27.265 14.95,53.43 23.783,78.316 1.54,-1.063 2.932,-2.455 4.433,-3.665 v -1.21 h 1.465 c 1.32,-1.1 2.72,-2.06 3.96,-3.27 l 162.39,-162.38 v 354.86 l 215.7,-215.71 c 28.07,-28.07 28.07,-73.513 0,-101.55 L 532.95,480.07 z m -14.476,-265.29 70.4,70.363 c 0.184,0.184 0.402,0.293 0.622,0.513 9.088,9.088 9.308,23.565 0.843,33.02 l 0.11,0.07 -71.975,71.94 V 214.78 z M 590.455,673.645 518.48,745.62 V 569.64 l 70.4,70.363 c 0.183,0.22 0.4,0.33 0.62,0.513 9.09,9.088 9.31,23.6 0.844,33.055 l 0.11,0.08 z"
     inkscape:connector-curvature="0"
     id="path4" />
</svg>
